Adwaita++-Light/panel/16/qjoypad-tray.svg

<svg height="16" width="16" xmlns="http://www.w3.org/2000/svg">
  <path d="m4 1c-2.216 0-4 1.8111038-4 4.0605469l.0078125 1.9394531c-.00084.0308589-.0078125.0586805-.0078125.0898438 0 .0264939.0073125.051732.0078125.078125l.02148438 6.1582032c-.25174002 1.504365 1.18653122 2.456011 2.39453122.810547l2.1289063-3.136719h6.8945316l2.128906 3.136719c1.208 1.645464 2.645531.693818 2.394531-.810547l.021485-6.1582032c.000987-.0263928.007812-.0516312.007812-.078125 0-.0244641-.006813-.0459496-.007812-.0703126l.007812-1.9589843c0-2.2494431-1.784-4.0605469-4-4.0605469zm0 2h1v2h2v1h-2v2h-1v-2h-2v-1h2zm7.75 0a.75000006.75000006 0 0 1 .75.75.75000006.75000006 0 0 1 -.75.75.75000006.75000006 0 0 1 -.75-.75.75000006.75000006 0 0 1 .75-.75zm-1.5 1.5a.75000006.75000006 0 0 1 .75.75.75000006.75000006 0 0 1 -.75.75.75000006.75000006 0 0 1 -.75-.75.75000006.75000006 0 0 1 .75-.75zm3 0a.75000006.75000006 0 0 1 .75.75.75000006.75000006 0 0 1 -.75.75.75000006.75000006 0 0 1 -.75-.75.75000006.75000006 0 0 1 .75-.75zm-1.5 1.5a.75000006.75000006 0 0 1 .75.75.75000006.75000006 0 0 1 -.75.75.75000006.75000006 0 0 1 -.75-.75.75000006.75000006 0 0 1 .75-.75z" fill="#444"/>
</svg>

<svg xmlns="http://www.w3.org/2000/svg" width="16" height="16" version="1.1">
 <defs>
  <style id="current-color-scheme" type="text/css">
   .ColorScheme-Text { color:#444444; } .ColorScheme-Highlight { color:#4285f4; }
  </style>
 </defs>
 <path style="fill:currentColor" class="ColorScheme-Text" d="M 4 1 C 1.784 1 0 2.8111038 0 5.0605469 L 0.0078125 7 C 0.0069725 7.0308589 1.4456029e-18 7.0586805 0 7.0898438 C 0 7.1163377 0.0073125 7.1415758 0.0078125 7.1679688 L 0.029296875 13.326172 C -0.22244314 14.830537 1.2158281 15.782183 2.4238281 14.136719 L 4.5527344 11 L 11.447266 11 L 13.576172 14.136719 C 14.784172 15.782183 16.221703 14.830537 15.970703 13.326172 L 15.992188 7.1679688 C 15.993175 7.141576 16 7.1163376 16 7.0898438 C 16 7.0653797 15.993187 7.0438942 15.992188 7.0195312 L 16 5.0605469 C 16 2.8111038 14.216 1 12 1 L 4 1 z M 4 3 L 5 3 L 5 5 L 7 5 L 7 6 L 5 6 L 5 8 L 4 8 L 4 6 L 2 6 L 2 5 L 4 5 L 4 3 z M 11.75 3 A 0.75000006 0.75000006 0 0 1 12.5 3.75 A 0.75000006 0.75000006 0 0 1 11.75 4.5 A 0.75000006 0.75000006 0 0 1 11 3.75 A 0.75000006 0.75000006 0 0 1 11.75 3 z M 10.25 4.5 A 0.75000006 0.75000006 0 0 1 11 5.25 A 0.75000006 0.75000006 0 0 1 10.25 6 A 0.75000006 0.75000006 0 0 1 9.5 5.25 A 0.75000006 0.75000006 0 0 1 10.25 4.5 z M 13.25 4.5 A 0.75000006 0.75000006 0 0 1 14 5.25 A 0.75000006 0.75000006 0 0 1 13.25 6 A 0.75000006 0.75000006 0 0 1 12.5 5.25 A 0.75000006 0.75000006 0 0 1 13.25 4.5 z M 11.75 6 A 0.75000006 0.75000006 0 0 1 12.5 6.75 A 0.75000006 0.75000006 0 0 1 11.75 7.5 A 0.75000006 0.75000006 0 0 1 11 6.75 A 0.75000006 0.75000006 0 0 1 11.75 6 z"/>
</svg>
